modules/entypo/icons/cc-nd.svg

<svg height="1000px" width="960px" xmlns="http://www.w3.org/2000/svg">
  <g>
    <path d="M306 468c0 0 0 -82 0 -82c0 0 348 0 348 0c0 0 0 82 0 82c0 0 -348 0 -348 0c0 0 0 0 0 0m0 154c0 0 0 -82 0 -82c0 0 348 0 348 0c0 0 0 82 0 82c0 0 -348 0 -348 0c0 0 0 0 0 0m174 -602c133.333 0 246.667 46.667 340 140c93.333 93.333 140 206.667 140 340c0 132 -46.667 245 -140 339c-93.333 94 -206.667 141 -340 141c-132 0 -245 -47 -339 -141c-94 -94 -141 -207 -141 -339c0 -133.333 47 -246.667 141 -340c94 -93.333 207 -140 339 -140c0 0 0 0 0 0m0 872c108 0 200.333 -38.333 277 -115c76.667 -76.667 115 -169 115 -277c0 -109.333 -38.333 -202 -115 -278c-76.667 -76 -169 -114 -277 -114c-108 0 -200.333 38 -277 114c-76.667 76 -115 168.667 -115 278c0 108 38.333 200.333 115 277c76.667 76.667 169 115 277 115c0 0 0 0 0 0" />
  </g>
</svg>

<svg height="1000" width="960" viewbox="0 0 960 1000" xmlns="http://www.w3.org/2000/svg"><path d="M306 468v-82h348v82H306m0 154v-82h348v82H306M480 20c133.333 0 246.667 46.667 340 140s140 206.667 140 340c0 132-46.667 245-140 339S613.333 980 480 980c-132 0-245-47-339-141S0 632 0 500c0-133.333 47-246.667 141-340S348 20 480 20m0 872c108 0 200.333-38.333 277-115s115-169 115-277c0-109.333-38.333-202-115-278S588 108 480 108s-200.333 38-277 114S88 390.667 88 500c0 108 38.333 200.333 115 277s169 115 277 115"/></svg>
